src/pos-icons/muffin.svg

<svg height="24" viewBox="0 0 24 24" width="24" xmlns="http://www.w3.org/2000/svg"><path d="m16 5s-1-3-4-3-4 3-4 3c-2 0-4 2-4 4-2.7 0-2.7 4 0 4h16c2.7 0 2.7-4 0-4 0-2-2-4-4-4m-11 10 2 7h2l-1-7zm5 0 1 7h2l1-7zm6 0-1 7h2l2-7z"/></svg>

<?xml version="1.0" encoding="UTF-8"?><!DOCTYPE svg PUBLIC "-//W3C//DTD SVG 1.1//EN" "http://www.w3.org/Graphics/SVG/1.1/DTD/svg11.dtd"><svg xmlns="http://www.w3.org/2000/svg" xmlns:xlink="http://www.w3.org/1999/xlink" version="1.1" id="mdi-muffin" width="24" height="24" viewBox="0 0 24 24"><path d="M16,5C16,5 15,2 12,2C9,2 8,5 8,5C6,5 4,7 4,9C1.3,9 1.3,13 4,13H20C22.7,13 22.7,9 20,9C20,7 18,5 16,5M5,15L7,22H9L8,15H5M10,15L11,22H13L14,15H10M16,15L15,22H17L19,15H16Z" /></svg>
